X: 13
T:The Dusty Window Sill
M:6/8
L:1/8
Q:120     %Tempo
K:G
A2 B cBA |eBd cBA |G3 EGG |DGG EFG |
A2 B cBA |e2 d efg |age dBG |ABA Ace ||
a3 age |dBd g3 |g3 gfe |dBA G3 |
EGG DGG |EFG ABc |Bed BAG |ABA A2 E ||
ABA a2 A |ABA a2 G |GAG g2 G |GAG edB |
ABA a2 A |ABA efg |age dBG |ABA A2 z ||
%  ABC2Win Version 2.1 21/06/2002
